X:478
T:Laihian Polkka
Z:Jack Campin, http://www.campin.me.uk/
F:Jack Campin's Nine-Note Tunebook
% last edit 25-10-2014
M:2/4
L:1/16
Q:1/4=160
K:DMin
d3c  B2AB|c2C2 E2G2|c3B  A2G2|   c2F2    A2c2 |
d3c  B2AB|c2C2 E2G2|c3B  A2GE|[1 EGA2    F2Ac:|\
                              [2 EGF2    F3E ||
F2Ac D2FA|A2Bd A2Bd|A2AG FEFG|   F2FE    D2FA |
D2FA D2FA|A2Bd A2Bd|A2AG FEFG|   F2FE [1 D2FA:|\
                                      [2 D4 |]

